X:1
T:A Bruxa
R:waltz
M:3/4
L:1/8
K:Amin
ec BA Bc | e2c2 Ad | cB F2c2 | B6 |
ec BA Bc | e2c2 Ad | cB F2B2 | A6 :|
AB c2d2 | e6 | fe d2g2 | e6 |
AB c2d2 | e6 | fe d2g2 | e6 |
|:~g2 ed ef | e2c2A2 |ed cB cd | c2A2F2 |
dc BA Bc | B2F2E2 | FE F2^G2 |1A2c2e2:|2A6||X: 1
T: Bmin
K:Bmin
fd cB cd | f2d2 Be | dc G2d2 | c6 |
fd cB cd | f2d2 Be | dc G2c2 | B6 :|
Bc d2e2 | f6 | gf e2a2 | f6 |
Bc d2e2 | f6 | gf e2a2 | f6 |
|:~a2 fe fg | f2d2B2 |fe dc de | d2B2G2 |
ed cB cd | c2G2F2 | GF G2^A2 |1B2d2f2:|2B6||

